_includes/icons/ios-profile-avatar.svg

<svg fill="#666" height="50" viewBox="0 0 50 50" width="50" xmlns="http://www.w3.org/2000/svg"><path d="m25 3c-5.535156 0-10 4.464844-10 10v6c0 3.238281 1.585938 6.144531 4 7.96875v4.53125c0 .105469-.019531.195313-.28125.4375-.261719.242188-.726562.566406-1.34375.875-1.230469.617188-3.007812 1.25-4.8125 2.125-1.804687.875-3.675781 1.988281-5.125 3.59375s-2.4375 3.757813-2.4375 6.46875v1h40v-1c0-2.734375-.988281-4.894531-2.4375-6.5s-3.320312-2.699219-5.125-3.5625c-1.804687-.863281-3.585937-1.515625-4.8125-2.125-.613281-.304687-1.085937-.601562-1.34375-.84375-.257812-.242187-.28125-.34375-.28125-.46875v-4.53125c2.414063-1.824219 4-4.730469 4-7.96875v-6c0-5.535156-4.464844-10-10-10zm0 2c4.464844 0 8 3.535156 8 8v6c0 2.757813-1.441406 5.242188-3.5625 6.65625l-.4375.3125v5.53125c0 .773438.398438 1.457031.90625 1.9375.507813.480469 1.144531.839844 1.84375 1.1875 1.398438.695313 3.117188 1.3125 4.8125 2.125 1.695313.8125 3.324219 1.792969 4.5 3.09375.976563 1.078125 1.542969 2.460938 1.75 4.15625h-35.625c.207031-1.675781.777344-3.042969 1.75-4.125 1.175781-1.304687 2.804688-2.300781 4.5-3.125 1.695313-.824219 3.417969-1.460937 4.8125-2.15625.695313-.347656 1.339844-.714844 1.84375-1.1875s.90625-1.136719.90625-1.90625v-5.53125l-.4375-.3125c-2.121094-1.414062-3.5625-3.898437-3.5625-6.65625v-6c0-4.464844 3.535156-8 8-8z"/></svg>

<svg xmlns="http://www.w3.org/2000/svg" viewBox="0 0 50 50" width="50" height="50" fill="#666"><path d="M 25 3 C 19.464844 3 15 7.464844 15 13 L 15 19 C 15 22.238281 16.585938 25.144531 19 26.96875 L 19 31.5 C 19 31.605469 18.980469 31.695313 18.71875 31.9375 C 18.457031 32.179688 17.992188 32.503906 17.375 32.8125 C 16.144531 33.429688 14.367188 34.0625 12.5625 34.9375 C 10.757813 35.8125 8.886719 36.925781 7.4375 38.53125 C 5.988281 40.136719 5 42.289063 5 45 L 5 46 L 45 46 L 45 45 C 45 42.265625 44.011719 40.105469 42.5625 38.5 C 41.113281 36.894531 39.242188 35.800781 37.4375 34.9375 C 35.632813 34.074219 33.851563 33.421875 32.625 32.8125 C 32.011719 32.507813 31.539063 32.210938 31.28125 31.96875 C 31.023438 31.726563 31 31.625 31 31.5 L 31 26.96875 C 33.414063 25.144531 35 22.238281 35 19 L 35 13 C 35 7.464844 30.535156 3 25 3 Z M 25 5 C 29.464844 5 33 8.535156 33 13 L 33 19 C 33 21.757813 31.558594 24.242188 29.4375 25.65625 L 29 25.96875 L 29 31.5 C 29 32.273438 29.398438 32.957031 29.90625 33.4375 C 30.414063 33.917969 31.050781 34.277344 31.75 34.625 C 33.148438 35.320313 34.867188 35.9375 36.5625 36.75 C 38.257813 37.5625 39.886719 38.542969 41.0625 39.84375 C 42.039063 40.921875 42.605469 42.304688 42.8125 44 L 7.1875 44 C 7.394531 42.324219 7.964844 40.957031 8.9375 39.875 C 10.113281 38.570313 11.742188 37.574219 13.4375 36.75 C 15.132813 35.925781 16.855469 35.289063 18.25 34.59375 C 18.945313 34.246094 19.589844 33.878906 20.09375 33.40625 C 20.597656 32.933594 21 32.269531 21 31.5 L 21 25.96875 L 20.5625 25.65625 C 18.441406 24.242188 17 21.757813 17 19 L 17 13 C 17 8.535156 20.535156 5 25 5 Z"/></svg>
